X: 35702
T: Saint Anne's
R: reel
M: 4/4
K: Dmajor
|:fedc edcB|A2FA DAFA|B2GB DBGB|A2FA DAFA|
fedc edcB|A2FA DAFA|B2ed cABc|eddc d2 de:|
|:f2fg fedc|Bggf g2gf|edcB Acea|baa^g abag|
f2fg fedc|Bggf g2gf|edcB ABcd|eddc d2 de:|

